X:1
T:Title
%%score { 1 | 2 }
L:1/8
M:6/8
K:G
V:1 treble nm="Grand Piano"
V:2 bass 
V:1
 z3 z2[Q:1/4=100] D | [B,G]2 [B,G] [B,G]2 [CA] | [DB]2 [DB] [DB]2 [B,G] | A G2 z3 | E [B,D]2 z3 | %5
 [B,G]2 [B,G] [B,G]2 [CA] | B2 B B2 [G^c] | [Fd] [FA]2 [Ge]2 [E^c] | [Fd]3- [Fd]2 [Fd] | %9
 c2 B A2 d |[M:5/8] B2 A G2 |[M:1/8] [DF] |[M:3/4] [CE]2 [EG] [Ec]2 [^CB] | B2 A A2 B | %14
 D2 D [DG]2 A |[M:7/8] B2 c d3 [Ec] |[M:3/4] B d2 A2 B |[M:5/8] [B,G]-[B,G]- [B,G]3 |[M:1/8] B | %19
[M:3/4] d2 d d2 B | [GB]2 [FA] [FA]2 B | [Ec]2 [Ec] [Ec]2 [DF] |[M:7/8] [DG]2 A B3 [B,D] | %23
[M:3/4] [CE]2 [CE] [EG]2 [Ge] |[M:7/8] e2 d d3 [Ec] |[M:3/4] B d2 A2 B | %26
[M:5/8] [B,G]-[B,G]- [B,G]3 |] %27
V:2
 z3 z2 D, | [G,,G,]2 [G,,G,] [G,,G,]2 [G,,G,] | [G,,G,]2 [G,,G,] [G,,G,]2 [G,,G,] | %3
 [D,F,C] [G,B,]2 z3 | [C,G,C] [G,,G,]2 z2 [D,D] | [G,,G,]2 [G,,G,] [G,,G,]2 [G,,G,] | %6
 [G,D]2 [G,D] [G,D]2 [E,A,] | [D,A,] [D,A,]2 [A,,A,]2 [A,,A,] | [D,A,]3- [D,A,]2 [D,A,] | %9
 [D,F,D]2 [D,G,D] [D,F,D]2 [D,F,D] |[M:5/8] [G,D]2 [G,C] [G,B,]2 |[M:1/8] [B,,G,] | %12
[M:3/4] [C,G,]2 [C,G,] [A,,A,]2 [A,,G,] | [D,G,D]2 [D,F,D] [D,F,D]2 [D,F,C] | %14
 [G,B,]2 [G,B,] [B,,G,]2 [D,F,D] |[M:7/8] [G,D]2 [G,A,D] [G,B,D]3 [C,G,] | %16
[M:3/4] [D,G,D] [D,B,D]2 [D,F,C]2 [D,F,C] |[M:5/8] [G,,G,]-[G,,G,]- [G,,G,]3 | %18
[M:1/8][K:treble] [G,DG] |[M:3/4] [G,B,G]2 [G,B,G] [G,B,G]2 [G,DG] | [D,D]2 [D,D] [D,D]2 [G,=F] | %21
 [C,G,]2 [C,G,] [C,G,]2 [C,A,] |[M:7/8] [B,,G,]2 [D,F,D] [G,D]3 [G,,G,] | %23
[M:3/4] [C,G,]2 [C,G,] [C,C]2 [C,C] |[M:7/8][K:treble] [G,CG]2 [G,B,G] [G,B,G]3[K:bass] [C,G,] | %25
[M:3/4] [D,G,D] [D,B,D]2 [D,F,C]2 [D,F,C] |[M:5/8] [G,,G,]-[G,,G,]- [G,,G,]3 |] %27

